assets/symbols/mulberry/today.svg

<svg height="850.394" viewBox="0 0 850.394 850.394" width="850.394" xmlns="http://www.w3.org/2000/svg"><path d="m422.93 423.93c49.45 0 89.53 40.08 89.53 89.53 0 49.44-40.08 89.521-89.53 89.521s-89.53-40.08-89.53-89.521c0-49.45 40.08-89.53 89.53-89.53z" fill="#fbed24"/><g fill="none"><g stroke="#231f20"><path d="m716.99 776.5h-584.98m380.45-263.04c0 49.44-40.08 89.521-89.53 89.521s-89.53-40.08-89.53-89.521c0-49.45 40.08-89.53 89.53-89.53s89.53 40.08 89.53 89.53zm-90.23-105.83v-68.11m-54.33 81.37-37.63-56.78m-1.38 98.62-61.7-28.83m211.3-14.1 37.61-56.78m1.38 98.63 61.71-28.84m-102.94 173.97 37.63 56.78m1.37-98.64 61.71 28.84m-211.3 14.11-37.62 56.77m-1.38-98.62-61.71 28.83m51.26-80.33h-68.1m348.58 0h-68.11m-106.35 171.48v-68.11" stroke-width="21"/><path d="m422.41 71.57v200.11m58.53-65.43-58.75 66.7-58.72-66.8" stroke-width="28"/></g><path d="m0 0h850.394v850.394h-850.394z"/></g></svg>

<svg xmlns="http://www.w3.org/2000/svg" width="850.394" height="850.394" viewBox="0 0 850.394 850.394" overflow="visible"><path d="M422.93 423.93c49.45 0 89.53 40.08 89.53 89.53 0 49.44-40.08 89.521-89.53 89.521s-89.53-40.08-89.53-89.521c0-49.45 40.08-89.53 89.53-89.53z" fill="#fbed24"/><g fill="none" stroke="#231f20"><path stroke-width="21" d="M716.99 776.5H132.01M512.46 513.46c0 49.44-40.08 89.521-89.53 89.521s-89.53-40.08-89.53-89.521c0-49.45 40.08-89.53 89.53-89.53s89.53 40.08 89.53 89.53zM422.23 407.63v-68.11M367.9 420.89l-37.63-56.78M328.89 462.73l-61.7-28.83M478.49 419.8l37.61-56.78M517.48 461.65l61.71-28.84M476.25 606.78l37.63 56.78M515.25 564.92l61.71 28.84M365.66 607.87l-37.62 56.77M326.66 566.02l-61.71 28.83M316.21 514.52h-68.1M596.69 514.52h-68.11M422.23 686v-68.11"/><path stroke-width="28" d="M422.41 71.57v200.11M480.94 206.25l-58.75 66.7-58.72-66.8"/></g><path fill="none" d="M0 0h850.394v850.394H0z"/></svg>
